X: 30337
T: Old Morpeth Rant, The
R: reel
M: 4/4
K: Cmajor
DF|G2DC B,G,B,D|ECEG FDFA|BGcA dBAG|FGAB cBAG|
G2DC B,G,B,D|ECEG FDFA|BGcA BGAF|G2G2 G2:|
|:df|gdBG FAce|dBAG GFED|cAcA BGBG|F2D2 D2GF|
ECEG cBAG|FDFA dcBA|dgfg ecAc|B2G2 G2:|
(3DEF|G2DC B,G,B,D|ECEG FDFA|BGcA dBAG|FGAB A2GF|
G2DC B,G,B,D|ECEG FDFA|Bedc BAGF|G2G2 G2:|
|:ef|gdBG FAce|dBAG F2ED|cAcA BGBG|FGAF D2D=F|
ECEG cBAG|FDFA dcBA|Bgfe dcBA|G2G2 G2:|
DF|G2DC B,G,B,D|ECEG FDFA|BGcA dBAG|F2A2 AcBA|
G2DC B,G,B,D|ECEG FDFA|BGcA dBAG|D2G2 G2:|
|:df|gdBG FAce|dBAG GFED|cecA BdBG|F2D2 D2GF|
ECEG cBAG|FDFA dcBA|Bgfe dcBA|B2G2 G2:|
F|G2DC B,G,B,D|ECEG FDFA|BGcA dBAG|F2A2 A2BA|
G2DC B,G,B,D|ECEG FDFA|BGcA dBAG|D2G2 G2:|
|:df|gdBG EGce|dBAG GFED|cecA BdBG|F2D2 D2GF|
ECEG cBAG|FDFA dcBA|Bgfe dcBA|B2G2 G2:|
(3DEF|G2DC B,G,B,D|ECEG FDFA|BGBG cBAG|F2A2 A2DF|
G2DC B,G,B,D|ECEG FDFA|BGBd cBAF|D2G2 G2:|
|:(3def|gdBG DFAB|cBcA GFED|cdcA BcBG|F2D2 D2GF|
ECEG cBAG|FDFA dcBA|Bgfg ecBA|B2G2 G2:|
BA|G2DD B,2DG|ECEE DB,DF|G2AB cBAG|F2A2 AcBA|
G2DD B,2DG|ECEE DB,DF|G2AB cBAF|D2G2 G2:|
|:ef|gfed B2GB|cBAG F2DF|ECEB cBAG|F2D2 D2F2|
ECEB cBAG|FDFA dcBA|Ggfg edBG|A2G2 G2:|
(3FGA|B2FE DB,DF|GEGB AFAc|B2gf edcB|A2c2 c2dc|
B2FE DB,DF|GEGB AFAc|Bbag fedc|B2B2 B2:|
|:(3fga|bfdB BAGF|fdec BAGF|egec dfdB|A2c2 c2 (3FGA|
BEGB edcB|AFAc fedc|Bbag fedc|B2B2 B2:|
B2FE DB,DF|GEGB AFAc|dBec fdcB|ABcd c2BA|
B2FE DB,DF|GEGB AFAc|dBcc dBcA|B2B2 B2BA:|
BdGd BdGd|ceGe ceGc|AcFc AcFc|BdFd BdFd|
BdGd BdGd|ceGe ceGe|Aedc BGAF|G2D2 G,3b/a/||
bfdB Acfg|fdcB Acfg|edcB ABcd|A2F2- F2GA|
BFG_A GBcd|eGcB AGFE|Dgfe dcBA|B2B2 B2BA||
ed|c2GF ECEG|AFAc BGBd|ecfd gedc|B2d2 dfed|
c2GF ECEG|AFAc BGBd|ecfd gedc|G2cc c2:|
|:(3gab|c'gec fafd|egec B2AG|fafd egec|B2GG G2cB|
AFAc fedc|BGBd gfed|ec'ba gfed|c2cc c2:|

